X: 052
T: Charlotte's Rant
B: 204 Favourite Country Dances
N: Published by Straight & Skillern, London ca.1775
F: http://imslp.org/wiki/204_Favourite_Country_Dances_(Various) p.26 #52
Z: 2014 John Chambers <jc:trillian.mit.edu>
M: C
L: 1/8
K: Am
% - - - - - - - - - - - - - - - - - - - - - - - - -
e2 |\
a2a2 a2^g2 | a2gf e2e2 | a3b a3g | Tf4 e2e2 |\
a2a2 a2^g2 | a2gf e2e2 | a3b a3g | Tf4 e2 |]
g2 |\
f3e d3f | e2de c2e2 | d3c B3d | cdcB A4 |\
ABcd e2e2 | aaab a4 | ABcd e2de | B4 A2 |]
% - - - - - - - - - - - - - - - - - - - - - - - - -
%%begintext align
%% Cast off 1 Cu. cast up again gallop down foot
%% it Right & Left at top
%%endtext

%%sep 1 1 500
%%sep 1 1 500
